packages/core/src/svgs/joy.svg

<svg width="24" height="24" viewBox="0 0 24 24" fill="none" xmlns="http://www.w3.org/2000/svg">
<g clip-path="url(#clip0_31_12160)">
<path d="M0 0H24V24H0V0Z" fill="url(#paint0_linear_31_12160)"/>
<path d="M5.57141 15.347V17.1427H18.4286V15.347C18.4286 14.9184 18.0943 14.5713 17.6828 14.5713H6.31713C5.9057 14.5713 5.57141 14.9184 5.57141 15.347Z" fill="#FFFFFD"/>
<path d="M11.1428 9.85693H12.8571V15.8569H11.1428V9.85693Z" fill="#FFFFFD"/>
<path d="M9.00001 13.62V14.5714H15V13.62C14.9978 13.5298 14.9601 13.4441 14.8951 13.3815C14.8301 13.319 14.7431 13.2845 14.6529 13.2857H9.34287C9.25267 13.2845 9.16564 13.319 9.10066 13.3815C9.03568 13.4441 8.99798 13.5298 8.99573 13.62H9.00001Z" fill="#EBC5FE"/>
<path d="M12 10.7144C13.6569 10.7144 15 9.37121 15 7.71436C15 6.0575 13.6569 4.71436 12 4.71436C10.3431 4.71436 9 6.0575 9 7.71436C9 9.37121 10.3431 10.7144 12 10.7144Z" fill="#E85754"/>
<path d="M13.6372 5.67857C13.3021 5.44265 12.9066 5.30734 12.4972 5.28857C12.3 5.30143 11.91 5.4 11.91 5.67857C11.91 6.03 12.2529 6.37286 12.4672 6.56143C12.6772 6.75 13.1829 7.08857 13.74 7.08857C14.2972 7.08857 14.3572 6.75429 14.3572 6.66C14.3572 6.56572 14.2972 6.10286 13.6372 5.67857Z" fill="#FAEADD"/>
</g>
<defs>
<linearGradient id="paint0_linear_31_12160" x1="4.46571" y1="4.16143" x2="29.2071" y2="32.58" gradientUnits="userSpaceOnUse">
<stop stop-color="#1A1E21"/>
<stop offset="1" stop-color="#06060A"/>
</linearGradient>
<clipPath id="clip0_31_12160">
<rect width="24" height="24" fill="white"/>
</clipPath>
</defs>
</svg>

<svg xmlns="http://www.w3.org/2000/svg" width="24" height="24" fill="none" viewBox="0 0 24 24"><g clip-path="url(#a)"><path fill="url(#b)" d="M0 0h24v24H0z"/><path fill="#FFFFFD" d="M5.571 15.347v1.796H18.43v-1.796c0-.429-.335-.776-.746-.776H6.317c-.411 0-.746.347-.746.776"/><path fill="#FFFFFD" d="M11.143 9.857h1.714v6h-1.714z"/><path fill="#EBC5FE" d="M9 13.62v.951h6v-.951a.343.343 0 0 0-.347-.334h-5.31a.343.343 0 0 0-.347.334z"/><path fill="#E85754" d="M12 10.714a3 3 0 1 0 0-6 3 3 0 0 0 0 6"/><path fill="#FAEADD" d="M13.637 5.679a2.15 2.15 0 0 0-1.14-.39c-.197.012-.587.111-.587.39 0 .351.343.694.557.882.21.189.716.528 1.273.528s.617-.335.617-.429-.06-.557-.72-.981"/></g><defs><linearGradient id="b" x1="4.466" x2="29.207" y1="4.161" y2="32.58" gradientUnits="userSpaceOnUse"><stop stop-color="#1A1E21"/><stop offset="1" stop-color="#06060A"/></linearGradient><clipPath id="a"><path fill="#fff" d="M0 0h24v24H0z"/></clipPath></defs></svg>
